X: 4
M: 6/8
L: 1/8
K: F
|:\
|:\
ceg geg | geg b2a | gfe fed | eA^c d2e |\
fcB AGF | EDC B2A | GBG ACE | (.F.F.F F3) |]

